svgs/light/function.svg

<svg xmlns="http://www.w3.org/2000/svg" viewBox="0 0 640 512"><!--! Font Awesome Pro 6.3.0 by @fontawesome - https://fontawesome.com License - https://fontawesome.com/license (Commercial License) Copyright 2023 Fonticons, Inc. --><path d="M208 32H160C115.8 32 80 67.82 80 112L80 192H16C7.199 192 0 199.2 0 208C0 216.8 7.199 224 16 224h64v144c0 26.51-21.49 48.01-48 48.01L16 416C7.199 416 0 423.2 0 432C0 440.8 7.199 448 16 448H32c44.18 0 80-35.82 80-80V224h64C184.8 224 192 216.8 192 208C192 199.2 184.8 192 176 192h-64V112c0-26.51 21.49-47.99 48-47.99L208 64C216.8 64 224 56.8 224 48C224 39.2 216.8 32 208 32zM507.3 244.7c-6.223-6.223-16.4-6.223-22.62 0L431.5 297.4L379.3 244.7c-6.221-6.223-16.4-6.223-22.62 0c-6.221 6.223-6.221 16.4 0 22.62L408.9 320l-52.21 52.71c-6.221 6.221-6.221 16.4 0 22.62c6.223 6.221 16.4 6.221 22.62 0l52.21-52.71l53.21 52.71c6.221 6.221 16.4 6.221 22.62 0c6.221-6.223 6.221-16.4 0-22.62L454.1 320l53.21-52.71C513.6 261.1 513.6 250.9 507.3 244.7zM297.1 163.5C291.1 158 281 159.2 275.5 166C242.3 207.5 224 262.2 224 320s18.3 112.5 51.5 154C278.7 477.9 283.3 480 288 480c3.5 0 7.031-1.156 9.984-3.5c6.891-5.531 8.016-15.59 2.5-22.5C271.8 418.1 256 370.5 256 320s15.8-98.13 44.5-134C306 179.1 304.9 169 297.1 163.5zM588.5 166c-5.516-6.875-15.58-8-22.5-2.5C559.1 169 557.1 179.1 563.5 186C592.2 221.9 608 269.5 608 320s-15.8 98.13-44.5 134c-5.516 6.906-4.391 16.97 2.5 22.5C568.1 478.8 572.5 480 575.1 480c4.703 0 9.359-2.062 12.52-6c33.2-41.53 51.5-96.22 51.5-154S621.7 207.5 588.5 166z"/></svg>

<svg xmlns="http://www.w3.org/2000/svg" viewBox="0 0 640 512"><!-- Font Awesome Pro 6.0.0-alpha2 by @fontawesome - https://fontawesome.com License - https://fontawesome.com/license (Commercial License) --><path d="M208 32H160C115.816 32 80 67.816 80 112V192H16C7.199 192 0 199.199 0 208C0 216.799 7.199 224 16 224H80V368C80 394.51 58.51 416 32 416H16C7.199 416 0 423.199 0 432C0 440.799 7.199 448 16 448H32C76.184 448 112 412.182 112 368V224H176C184.801 224 192 216.799 192 208C192 199.199 184.801 192 176 192H112V112C112 85.49 133.49 64 160 64H208C216.801 64 224 56.799 224 48C224 39.199 216.801 32 208 32ZM507.334 244.666C501.111 238.443 490.93 238.443 484.709 244.666L431.5 297.375L379.291 244.666C373.07 238.443 362.889 238.443 356.666 244.666C350.445 250.889 350.445 261.068 356.666 267.291L408.875 320L356.666 372.709C350.445 378.93 350.445 389.111 356.666 395.334C362.889 401.555 373.07 401.555 379.291 395.334L431.5 342.625L484.709 395.334C490.93 401.555 501.111 401.555 507.334 395.334C513.555 389.111 513.555 378.93 507.334 372.709L454.125 320L507.334 267.291C513.555 261.068 513.555 250.889 507.334 244.666ZM298 163.5C291.109 158.031 281.016 159.156 275.5 166C242.297 207.531 224 262.219 224 320S242.297 432.469 275.5 474C278.672 477.938 283.312 480 288.016 480C291.516 480 295.047 478.844 298 476.5C304.891 470.969 306.016 460.906 300.5 454C271.797 418.125 256 370.531 256 320S271.797 221.875 300.5 186C306.016 179.094 304.891 169.031 298 163.5ZM588.5 166C582.984 159.125 572.922 158 566 163.5C559.109 169.031 557.984 179.094 563.5 186C592.203 221.875 608 269.469 608 320S592.203 418.125 563.5 454C557.984 460.906 559.109 470.969 566 476.5C568.953 478.844 572.484 480 575.984 480C580.688 480 585.344 477.938 588.5 474C621.703 432.469 640 377.781 640 320S621.703 207.531 588.5 166Z"/></svg>
